X: 286
T:Sabat mater/Comme femme desconfort\'ee / Eia mater
N: Derived from Jos2509-Stabat_mater__Comme_femme.krn
C: Josquin des Prez
%%abc-version 2.0
%%abcx-abcm2ps-target-version 5.9.1 (29 Sep 2008)
%%abc-creator hum2abc beta
%%abcx-conversion-date 2019/02/12 16:15:52
%%abc-edited-by Jesse Rodin
%%abc-edited-by Jesse Rodin; Victoria Chang 2011/05/17
%%abcx-initial-encoding-date 2011/05/17/
%%humdrum-veritas 3036549054
%%humdrum-veritas-data 3362220628
%%linebreak <none>
%%barnumbers 0
L: 1/4
M: 2/1
Q: 1/2=120
V: 1 clef=treble
V: 2 clef=treble-8
V: 3 clef=treble-8
V: 4 clef=treble-8
V: 5 clef=bass
K: F
[V:1] z4c4 | 
[V:2] z8 | 
[V:3] c8- | 
[V:4] z8 | 
[V:5] C4C4 | 
[V:1] c4A4 | 
[V:2] z8 | 
[V:3] c8 | 
[V:4] z8 | 
[V:5] A,4F,4 | 
[V:1] F4B4 | 
[V:2] z8 | 
[V:3] d8 | 
[V:4] z4B4 | 
[V:5] B,3A,G,4 | 
[V:1] A3FF4 | 
[V:2] c4c4 | 
[V:3] f8- | 
[V:4] c2A4GF | 
[V:5] F,8- | 
[V:1] z8 | 
[V:2] A3FF4 | 
[V:3] f8 | 
[V:4] F2c2d2c2- | 
[V:5] F,8 | 
[V:1] z8 | 
[V:2] c2c2c4 | 
[V:3] e8 | 
[V:4] c2BAG4 | 
[V:5] C,8 | 
[V:1] z8 | 
[V:2] A4z2A2 | 
[V:3] f8- | 
[V:4] F4F4 | 
[V:5] z4F,4 | 
[V:1] z4F4 | 
[V:2] d4d4 | 
[V:3] f8- | 
[V:4] B4B4 | 
[V:5] B,,4B,,4 | 
[V:1] A3Bc4 | 
[V:2] c4c4 | 
[V:3] f8- | 
[V:4] A4F4- | 
[V:5] F,4F,4 | 
[V:1] F2f2f2f2- | 
[V:2] d4d4 | 
[V:3] f8 | 
[V:4] F2F2F4 | 
[V:5] D,4D,4 | 
[V:1] f2ede4 | 
[V:2] G8 | 
[V:3] g8- | 
[V:4] c8 | 
[V:5] C,8 | 
[V:1] z2e2e2e2 | 
[V:2] z2c2c2c2 | 
[V:3] g8 | 
[V:4] z2C2C2C2 | 
[V:5] z8 | 
[V:1] f3ec2d2- | 
[V:2] A2a3gf2- | 
[V:3] f8 | 
[V:4] F3GA2B2 | 
[V:5] z8 | 
[V:1] d2cBc4 | 
[V:2] f2ede4 | 
[V:3] c8 | 
[V:4] A4A4 | 
[V:5] z8 | 
[V:1] d2d2d2d2 | 
[V:2] d4z2d2 | 
[V:3] f8- | 
[V:4] D8 | 
[V:5] z4D,4 | 
[V:1] A4A4 | 
[V:2] d2d2A4 | 
[V:3] f8 | 
[V:4] z4D4 | 
[V:5] D,4D,4 | 
[V:1] c4c4 | 
[V:2] A4c4 | 
[V:3] e8- | 
[V:4] A4A4 | 
[V:5] A,,4A,,4 | 
[V:1] G4z2G2 | 
[V:2] c4G4 | 
[V:3] e8 | 
[V:4] E4E2E2 | 
[V:5] C,4C,4 | 
[V:1] B4B4 | 
[V:2] z2d2f4 | 
[V:3] d8 | 
[V:4] G3FD4 | 
[V:5] G,,4z2D,2 | 
[V:1] A4A4 | 
[V:2] f4c4 | 
[V:3] c8 | 
[V:4] z2A4A2 | 
[V:5] F,4F,4 | 
[V:1] G4G4 | 
[V:2] z4c4 | 
[V:3] e8 | 
[V:4] c3BG4 | 
[V:5] C,4C,4 | 
[V:1] A6GF | 
[V:2] c4f4- | 
[V:3] f8 | 
[V:4] z4F4 | 
[V:5] F,4F,4 | 
[V:1] F4B4- | 
[V:2] f2e2d2c2 | 
[V:3] d8- | 
[V:4] B6A2 | 
[V:5] B,,8 | 
[V:1] B2A2F3G | 
[V:2] B3cdef2- | 
[V:3] d8 | 
[V:4] G2F2B4 | 
[V:5] z4B,,4 | 
[V:1] A4G2c2- | 
[V:2] f2F2G2F2 | 
[V:3] c8- | 
[V:4] A4z2A2- | 
[V:5] F,4E,2F,2- | 
[V:1] cBA2G2A2- | 
[V:2] A2c3BAG | 
[V:3] c8- | 
[V:4] A2F2G2F2 | 
[V:5] F,4E,2F,2- | 
[V:1] AGF4E2 | 
[V:2] F4G4 | 
[V:3] c8- | 
[V:4] A4G4 | 
[V:5] F,4C,4 | 
[V:1] F8 | 
[V:2] A4z2F2 | 
[V:3] c8 | 
[V:4] F8 | 
[V:5] z2F,2A,4- | 
[V:1] z4F4 | 
[V:2] A6B2 | 
[V:3] F8- | 
[V:4] z8 | 
[V:5] A,2B,2C4 | 
[V:1] A6B2 | 
[V:2] c4F4 | 
[V:3] F8 | 
[V:4] F4A4- | 
[V:5] F,4z4 | 
[V:1] c4F2c2- | 
[V:2] z4z2f2 | 
[V:3] A8- | 
[V:4] A2B2c4 | 
[V:5] F,4F,2F,2- | 
[V:1] c2c2c4 | 
[V:2] f2f2e4 | 
[V:3] A8 | 
[V:4] F4z2E2 | 
[V:5] F,2E,D,C,4 | 
[V:1] d4z2B2- | 
[V:2] d4z2d2 | 
[V:3] B8- | 
[V:4] F4F4 | 
[V:5] B,,4B,,4 | 
[V:1] B2A2G4 | 
[V:2] _e4_e4 | 
[V:3] B8- | 
[V:4] G3FGAB2- | 
[V:5] _E,4E,4 | 
[V:1] F4B4- | 
[V:2] d4d2d2 | 
[V:3] B8- | 
[V:4] BAF2G2F2 | 
[V:5] B,,4z2B,,2- | 
[V:1] B2B2B4 | 
[V:2] d3ef4 | 
[V:3] B8 | 
[V:4] G2F2D4 | 
[V:5] B,,2B,,2B,,4 | 
[V:1] A4A2A2 | 
[V:2] z2f4f2 | 
[V:3] c8- | 
[V:4] z2A2A2c2- | 
[V:5] F,4F,2F,2 | 
[V:1] G3GG2G2 | 
[V:2] e3ee2e2 | 
[V:3] c8 | 
[V:4] c2BAG2G2 | 
[V:5] C,3C,C,2C,2 | 
[V:1] A8 | 
[V:2] f4z2f2- | 
[V:3] A8- | 
[V:4] F4z2D2- | 
[V:5] F,4z2F,2- | 
[V:1] z8 | 
[V:2] f2e2d4 | 
[V:3] A8- | 
[V:4] D2E2F4 | 
[V:5] F,2C,2D,4 | 
[V:1] z8 | 
[V:2] cBAGF2F2 | 
[V:3] A8- | 
[V:4] E4z2F2- | 
[V:5] A,,4z2D,2- | 
[V:1] z8 | 
[V:2] f4e4 | 
[V:3] A8 | 
[V:4] F2D2E3F | 
[V:5] D,2D,2C,3B,, | 
[V:1] z8 | 
[V:2] d4z2d2 | 
[V:3] B8 | 
[V:4] G4z2G2 | 
[V:5] G,,4z2G,,2 | 
[V:1] z8 | 
[V:2] d4c4 | 
[V:3] A8 | 
[V:4] F2D2E4 | 
[V:5] D,4A,,4 | 
[V:1] z8 | 
[V:2] d4z2c2 | 
[V:3] F8- | 
[V:4] D4z2A2- | 
[V:5] B,,4z2A,,2 | 
[V:1] z8 | 
[V:2] f4f4 | 
[V:3] F8 | 
[V:4] A2A2A3B | 
[V:5] D,4D,4 | 
[V:1] z8 | 
[V:2] e4z2c2- | 
[V:3] G8 | 
[V:4] c4z4 | 
[V:5] C,8 | 
[V:1] z8 | 
[V:2] c2B2A2G2 | 
[V:3] F8 | 
[V:4] c6B2 | 
[V:5] z4C4- | 
[V:1] z4c4- | 
[V:2] F3EF2G2 | 
[V:3] c8- | 
[V:4] A2G2F2E2 | 
[V:5] C2B,2A,2G,2 | 
[V:1] c2B2A2G2- | 
[V:2] A4z4 | 
[V:3] c8 | 
[V:4] F4z4 | 
[V:5] F,6C,2 | 
[V:1] GFF4E2 | 
[V:2] z8 | 
[V:3] B8 | 
[V:4] z8 | 
[V:5] E,2F,2G,4 | 
[V:1] F4c4- | 
[V:2] z2A2c2d2 | 
[V:3] A8 | 
[V:4] c8- | 
[V:5] F,8 | 
[V:1] c2B2A2G2- | 
[V:2] e4z2c2 | 
[V:3] G8- | 
[V:4] c8- | 
[V:5] C,8- | 
[V:1] GFF4E2 | 
[V:2] e2f2g4 | 
[V:3] G8 | 
[V:4] c8 | 
[V:5] C,8 | 
[V:1] F8 | 
[V:2] a8 | 
[V:3] F8- | 
[V:4] A8 | 
[V:5] C4D2C2- | 
[V:1] z8 | 
[V:2] z8 | 
[V:3] F8- | 
[V:4] c4d2c2- | 
[V:5] CB,A,G,F,4 | 
[V:1] z8 | 
[V:2] z8 | 
[V:3] F8- | 
[V:4] cBAGF2F2 | 
[V:5] A,3B,C4 | 
[V:1] z8 | 
[V:2] c4d2c2- | 
[V:3] F8- | 
[V:4] A4A3B | 
[V:5] F,4z4 | 
[V:1] c4d2c2- | 
[V:2] cBAGF2F2 | 
[V:3] F8- | 
[V:4] c4z4 | 
[V:5] z8 | 
[V:1] cBAGF2F2 | 
[V:2] A3Bc4 | 
[V:3] F8 | 
[V:4] z8 | 
[V:5] z8 | 
[V:1] A3Bc4 | 
[V:2] F4z2A2- | 
[V:3] f8- | 
[V:4] z4z2c2- | 
[V:5] z4z2F,2- | 
[V:1] F2A4A2 | 
[V:2] A2A2A2A2 | 
[V:3] f8- | 
[V:4] c2c2c2c2 | 
[V:5] F,2F,2F,2F,2 | 
[V:1] A2A2A2A2 | 
[V:2] F4F4 | 
[V:3] f8 | 
[V:4] d2c2A4 | 
[V:5] D,4F,4 | 
[V:1] G8 | 
[V:2] c8 | 
[V:3] e8 | 
[V:4] z4z2G2 | 
[V:5] C,4z2C,2 | 
[V:1] z8 | 
[V:2] z8 | 
[V:3] c8- | 
[V:4] A2A2G2c2- | 
[V:5] F,2F,2E,2A,2- | 
[V:1] z8 | 
[V:2] z8 | 
[V:3] c8 | 
[V:4] c2A2G4 | 
[V:5] A,2F,2E,4 | 
[V:1] z2A2B2A2- | 
[V:2] z2f4f2 | 
[V:3] d8- | 
[V:4] A4z4 | 
[V:5] D,8 | 
[V:1] A2GFG4 | 
[V:2] f4e4 | 
[V:3] d4c4 | 
[V:4] z8 | 
[V:5] z8 | 
[V:1] A2e3dc2- | 
[V:2] f2e2cdef | 
[V:3] A8 | 
[V:4] z8 | 
[V:5] z8 | 
[V:1] c2=BA=B4 | 
[V:2] g2e2d4 | 
[V:3] G8 | 
[V:4] z4z2G2 | 
[V:5] z8 | 
[V:1] c8 | 
[V:2] c4z2c2 | 
[V:3] c8 | 
[V:4] A2G2A4 | 
[V:5] z2C,2F,4 | 
[V:1] z8 | 
[V:2] c2c2c3B/c/ | 
[V:3] _e8 | 
[V:4] G4z2G2 | 
[V:5] C,4z2C,2 | 
[V:1] z8 | 
[V:2] BAA4G2 | 
[V:3] d8 | 
[V:4] F4D4 | 
[V:5] D,4B,,4 | 
[V:1] c4A2c2- | 
[V:2] A3Bcde2 | 
[V:3] c8- | 
[V:4] E2A2A2A2 | 
[V:5] A,,4z2A,,2 | 
[V:1] c2BAG4 | 
[V:2] z2g2e2g2- | 
[V:3] c8 | 
[V:4] G4z2E2 | 
[V:5] C,4C,4 | 
[V:1] G2G2G4 | 
[V:2] g2fed2d2 | 
[V:3] B8 | 
[V:4] G4G4 | 
[V:5] G,,8 | 
[V:1] A8 | 
[V:2] f2f2d2d2 | 
[V:3] A8- | 
[V:4] D8 | 
[V:5] z2D,2F,2F,2 | 
[V:1] z8 | 
[V:2] f3ec2d2 | 
[V:3] A8 | 
[V:4] z8 | 
[V:5] D,2D,2F,2F,2 | 
[V:1] z8 | 
[V:2] e2c2d2d2 | 
[V:3] G8 | 
[V:4] z2c4B2 | 
[V:5] C,4z4 | 
[V:1] z8 | 
[V:2] e2A3Bcd | 
[V:3] c8- | 
[V:4] c2F2A3B | 
[V:5] z8 | 
[V:1] z2G2A2A2 | 
[V:2] e4z2c2 | 
[V:3] c8 | 
[V:4] c4z4 | 
[V:5] z2C,2F,2F,2 | 
[V:1] A2A2B4 | 
[V:2] f2f2d2d2 | 
[V:3] d8 | 
[V:4] z8 | 
[V:5] D,2D,2G,3F, | 
[V:1] c4G2G2 | 
[V:2] g3fedc2 | 
[V:3] e8 | 
[V:4] z2c2c2c2 | 
[V:5] E,D,C,2z2C,2 | 
[V:1] A2A2A2A2 | 
[V:2] c2f2f2d2 | 
[V:3] f8 | 
[V:4] A2A2d3c | 
[V:5] F,2F,2D,2D,2 | 
[V:1] B4c4 | 
[V:2] d2g3fed | 
[V:3] g8- | 
[V:4] BAG2z2c2- | 
[V:5] G,3F,E,D,C,2 | 
[V:1] G2e2d2e2- | 
[V:2] e2c2z2c2 | 
[V:3] g8- | 
[V:4] c2c2B2c2 | 
[V:5] z2C,2G,2C,2- | 
[V:1] edc3=B=BA | 
[V:2] G2g3fd2 | 
[V:3] g8- | 
[V:4] e4d4 | 
[V:5] C,D,E,F,G,2G,2 | 
[V:1] c8 ||  
[V:2] e3ee4 ||  
[V:3] g8 ||  
[V:4] c8 ||  
[V:5] C,3C,C,4 ||  
[V:1] [M:2/1]z8 | 
[V:2] [M:2/1]z8 | 
[V:3] [M:2/1]a8- | 
[V:4] [M:2/1]c4d2f2- | 
[V:5] [M:2/1]F,6D,2 | 
[V:1] z4c4 | 
[V:2] z8 | 
[V:3] a8- | 
[V:4] f2ede4 | 
[V:5] D,4A,4 | 
[V:1] d2f4ed | 
[V:2] z8 | 
[V:3] a8- | 
[V:4] d6cB | 
[V:5] D,8 | 
[V:1] e4d4 | 
[V:2] c4d2f2- | 
[V:3] a8 | 
[V:4] A4D2d2 | 
[V:5] z8 | 
[V:1] z4e4 | 
[V:2] f2ede4 | 
[V:3] g8 | 
[V:4] ed^c=B^c4 | 
[V:5] z8 | 
[V:1] f3edcd2- | 
[V:2] d4d4 | 
[V:3] f8 | 
[V:4] d4z2A2 | 
[V:5] z4D,4 | 
[V:1] dcBAB4 | 
[V:2] d4g4 | 
[V:3] d8- | 
[V:4] BAGFG4 | 
[V:5] G,4G,4 | 
[V:1] A4z4 | 
[V:2] f6ed | 
[V:3] d8 | 
[V:4] A6B2 | 
[V:5] D,3E,F,2G,2 | 
[V:1] z8 | 
[V:2] e2d2e4 | 
[V:3] g8- | 
[V:4] c2B2c2G2- | 
[V:5] C,2G,2C,D,E,F, | 
[V:1] z8 | 
[V:2] d2GABcd2 | 
[V:3] g8- | 
[V:4] GABcd2GA | 
[V:5] G,8 | 
[V:1] z4B4 | 
[V:2] GABcd2G2 | 
[V:3] g8 | 
[V:4] Bcd2G2d2 | 
[V:5] z4G,4 | 
[V:1] B4B4 | 
[V:2] d4z2d2 | 
[V:3] g8 | 
[V:4] GABcd2G2 | 
[V:5] G,4G,4 | 
[V:1] A4d4 | 
[V:2] d4d4 | 
[V:3] f8- | 
[V:4] A8 | 
[V:5] D,4D,4 | 
[V:1] c3BA4 | 
[V:2] A4A4 | 
[V:3] f8 | 
[V:4] z8 | 
[V:5] F,4F,4 | 
[V:1] G4z2G2 | 
[V:2] c3BA2G2 | 
[V:3] e8 | 
[V:4] z4c4 | 
[V:5] C,4z2C,2 | 
[V:1] A4A4 | 
[V:2] F8 | 
[V:3] f8 | 
[V:4] A4d4 | 
[V:5] F,4D,4 | 
[V:1] B6AG | 
[V:2] z8 | 
[V:3] d8- | 
[V:4] z2GABcd2- | 
[V:5] G,6F,E, | 
[V:1] A2G3DFG | 
[V:2] z8 | 
[V:3] d8 | 
[V:4] d2B2A4 | 
[V:5] F,2G,2D,3E, | 
[V:1] ABc3BA2 | 
[V:2] z8 | 
[V:3] c8- | 
[V:4] z2FGABc2- | 
[V:5] F,G,A,4F,2 | 
[V:1] G2F4E2 | 
[V:2] z8 | 
[V:3] c8- | 
[V:4] c2A2G4 | 
[V:5] E,2F,2C,4 | 
[V:1] F8 | 
[V:2] z4f4 | 
[V:3] c8 | 
[V:4] F4F4 | 
[V:5] F,8 | 
[V:1] z4F4 | 
[V:2] f4f4 | 
[V:3] d8- | 
[V:4] B4B4 | 
[V:5] z8 | 
[V:1] B4B4 | 
[V:2] g4g4 | 
[V:3] d8 | 
[V:4] G4G4 | 
[V:5] z8 | 
[V:1] G2G2c3B | 
[V:2] g2e4c2 | 
[V:3] e8 | 
[V:4] c3BA3G | 
[V:5] z8 | 
[V:1] A3GF4 | 
[V:2] c4z2B2 | 
[V:3] f8- | 
[V:4] F4z2d2 | 
[V:5] z4z2B,,2 | 
[V:1] z8 | 
[V:2] A2B4AG | 
[V:3] f8- | 
[V:4] c2d4cB | 
[V:5] F,2B,,3C,D,E, | 
[V:1] z8 | 
[V:2] F2d2c2d2- | 
[V:3] f8- | 
[V:4] A2B2A2B2- | 
[V:5] F,2B,,2z4 | 
[V:1] z2d2c2d2- | 
[V:2] d2cBA2B2- | 
[V:3] f8 | 
[V:4] BAB2F4 | 
[V:5] z2B,,2F,2B,,2- | 
[V:1] d2cBA2B2- | 
[V:2] B2AGF2B2- | 
[V:3] d8- | 
[V:4] z8 | 
[V:5] B,,C,D,E,F,2G,2- | 
[V:1] B2AGF3G | 
[V:2] B2c2d3e | 
[V:3] d8 | 
[V:4] z8 | 
[V:5] G,2A,2B,3A, | 
[V:1] ABc3BG2- | 
[V:2] f2c3def | 
[V:3] c8 | 
[V:4] z8 | 
[V:5] F,G,A,B,C3B, | 
[V:1] GFGAB4- | 
[V:2] g3fd4 | 
[V:3] B8- | 
[V:4] z4G4- | 
[V:5] G,8 | 
[V:1] B2AGF4 | 
[V:2] z2d3cde | 
[V:3] B8 | 
[V:4] GFGAB3A | 
[V:5] z8 | 
[V:1] z4z2F2 | 
[V:2] f3ec2d2 | 
[V:3] A8 | 
[V:4] F2D2F3E | 
[V:5] z8 | 
[V:1] G2CDEFG2- | 
[V:2] e8 | 
[V:3] G8- | 
[V:4] C3B,CDE2- | 
[V:5] z8 | 
[V:1] GFF4E2 | 
[V:2] c8 | 
[V:3] G8 | 
[V:4] E2F2C4 | 
[V:5] z4C,4 | 
[V:1] F8- | 
[V:2] A8 | 
[V:3] F8- | 
[V:4] z4c4 | 
[V:5] D,4F,4- | 
[V:1] F8 | 
[V:2] z8 | 
[V:3] F8- | 
[V:4] d4f4- | 
[V:5] F,2F,2F,3E, | 
[V:1] z8 | 
[V:2] z8 | 
[V:3] F8- | 
[V:4] f2f2f3e | 
[V:5] D,C,D,4C,B,, | 
[V:1] z8 | 
[V:2] z8 | 
[V:3] F8- | 
[V:4] c2d4cB | 
[V:5] A,,2B,,4A,,G,, | 
[V:1] z4z2F2 | 
[V:2] z2F2c2d2 | 
[V:3] F8- | 
[V:4] A8 | 
[V:5] F,,8 | 
[V:1] c2d2c2f2 | 
[V:2] c2f3gaf | 
[V:3] F8 | 
[V:4] z8 | 
[V:5] z8 | 
[V:1] ede4dc | 
[V:2] g2cdefg2- | 
[V:3] c8 | 
[V:4] z8 | 
[V:5] z8 | 
[V:1] =B2c4=B2 | 
[V:2] g2e2d4 | 
[V:3] G8 | 
[V:4] z8 | 
[V:5] z8 | 
[V:1] c4G4 | 
[V:2] c4_e4 | 
[V:3] c8 | 
[V:4] z8 | 
[V:5] z4C,4 | 
[V:1] G4G4 | 
[V:2] _e4_e4 | 
[V:3] c8 | 
[V:4] G4G4 | 
[V:5] C,4C,4 | 
[V:1] B6A2 | 
[V:2] d4G4 | 
[V:3] B8- | 
[V:4] G4G4 | 
[V:5] G,,6A,,2 | 
[V:1] F4G4 | 
[V:2] d6e2 | 
[V:3] B8 | 
[V:4] D4G4 | 
[V:5] B,,4G,,4 | 
[V:1] A8 | 
[V:2] f4z2f2 | 
[V:3] A8- | 
[V:4] F4z2F2 | 
[V:5] D,8 | 
[V:1] z8 | 
[V:2] e2f2e2f2 | 
[V:3] A8- | 
[V:4] c2F2c2F2 | 
[V:5] z8 | 
[V:1] z8 | 
[V:2] e2f4ed | 
[V:3] A8- | 
[V:4] c2F3GAB | 
[V:5] z8 | 
[V:1] z4z2F2 | 
[V:2] e4z2A2 | 
[V:3] A8- | 
[V:4] c4F4 | 
[V:5] z4z2D,2 | 
[V:1] E2F2E2F2 | 
[V:2] c2F2c2F2 | 
[V:3] A8- | 
[V:4] z8 | 
[V:5] C,2D,2A,,2D,2 | 
[V:1] E2F4ED | 
[V:2] c2F3GAB | 
[V:3] A8 | 
[V:4] z8 | 
[V:5] C,2D,4C,B,, | 
[V:1] E8- | 
[V:2] c4z2A2 | 
[V:3] A8- | 
[V:4] z4A2c2 | 
[V:5] A,,8- | 
[V:1] E8 | 
[V:2] c2ABcde2- | 
[V:3] A8- | 
[V:4] A2c3BAG | 
[V:5] A,,8- | 
[V:1] z8 | 
[V:2] e2d4^c2 | 
[V:3] A8- | 
[V:4] A2F2E4 | 
[V:5] A,,8 | 
[V:1] z8 | 
[V:2] d4z2D2- | 
[V:3] A8- | 
[V:4] D8 | 
[V:5] z8 | 
[V:1] z8 | 
[V:2] D2F4ED | 
[V:3] A8- | 
[V:4] z4d4 | 
[V:5] z4D,4 | 
[V:1] z8 | 
[V:2] E4F4 | 
[V:3] A8 | 
[V:4] c3BA4 | 
[V:5] A,,4D,4 | 
[V:1] z8 | 
[V:2] GABcd2e2- | 
[V:3] B8 | 
[V:4] G4z2G2 | 
[V:5] G,,4z2G,,2 | 
[V:1] z8 | 
[V:2] e2d4^c2 | 
[V:3] A8 | 
[V:4] F2D2E4 | 
[V:5] D,4A,,4 | 
[V:1] z8 | 
[V:2] d4A4 | 
[V:3] F8- | 
[V:4] D8 | 
[V:5] D,8 | 
[V:1] z4F4 | 
[V:2] D4A2D2 | 
[V:3] F8 | 
[V:4] A4D2A2 | 
[V:5] z4D,4 | 
[V:1] F2F2F2F2 | 
[V:2] A2D2d4- | 
[V:3] F8- | 
[V:4] D2A2D2A2 | 
[V:5] D,2D,2D,2D,2 | 
[V:1] F4F4 | 
[V:2] d2c2A4 | 
[V:3] F8 | 
[V:4] B3AF3G | 
[V:5] B,,4D,4 | 
[V:1] E4z2A2- | 
[V:2] z4z2f2- | 
[V:3] c8- | 
[V:4] A8 | 
[V:5] A,,4z2F,2- | 
[V:1] A2A2A2A2 | 
[V:2] f2f2f2f2 | 
[V:3] c8- | 
[V:4] z2A4A2 | 
[V:5] F,2F,2F,2F,2 | 
[V:1] A2A2G4 | 
[V:2] f2f2e4 | 
[V:3] c8 | 
[V:4] A2A2c3c | 
[V:5] F,2F,2C,4 | 
[V:1] z2G2G2D2 | 
[V:2] z2d2d2d2 | 
[V:3] B8 | 
[V:4] G2G2G2G2 | 
[V:5] z2G,,2G,,2G,,2 | 
[V:1] [M:2/1](3:2:4E4E2D2E4 | 
[V:2] (3:2:4c4c2B2c4 | 
[V:3] G8 | 
[V:4] [M:2/1](3:2:4E4C2G2E4 | 
[V:5] (3:2:4C,4C,2G,,2C,4 | 
[V:1] (3:2:4D4B2B2G4 | 
[V:2] (3:2:4d4d2d2d4 | 
[V:3] B8 | 
[V:4] (3:2:4F4G2G2G4 | 
[V:5] (3:2:4B,,4G,,2G,,2G,,4 | 
[V:1] (3:2:4A4A2A2F4 | 
[V:2] (3:2:4f4f2f2f4 | 
[V:3] A8 | 
[V:4] (3:2:4F4F2F2A4 | 
[V:5] (3:2:4D,4D,2F,2F,4 | 
[V:1] [M:2/1]G4z4 | 
[V:2] [M:2/1](3e2c2d2(3e3fg2 | 
[V:3] G8 | 
[V:4] (3:2:4c4c2c4G2 | 
[V:5] C,8- | 
[V:1] z8 | 
[V:2] (3:2:5c2g3ff4e2 | 
[V:3] c8- | 
[V:4] (3:2:5A2G2A2F2G4 | 
[V:5] C,8 | 
[V:1] z2A2G2A2 | 
[V:2] [M:2/1]f4z4 | 
[V:3] c8 | 
[V:4] [M:2/1]F4z4 | 
[V:5] z2F,2E,2F,2 | 
[V:1] (3:2:4F4F2B2B4 | 
[V:2] z8 | 
[V:3] d8- | 
[V:4] z8 | 
[V:5] (3:2:4D,4D,2G,2G,4 | 
[V:1] A2B2A2B2 | 
[V:2] z2d2f2d2 | 
[V:3] d8 | 
[V:4] z2G2F2G2 | 
[V:5] D,2G,,2D,2G,,2 | 
[V:1] G2G2A2F2 | 
[V:2] (3:2:4e4e2c2f4 | 
[V:3] c8- | 
[V:4] (3:2:4E4E2A2A4 | 
[V:5] (3:2:4C,4C,2F,2F,4 | 
[V:1] [M:2/1](3:2:5G4z2e2e2e2 | 
[V:2] [M:2/1](3:2:5e4z2g2g2g2 | 
[V:3] c8 | 
[V:4] G8 | 
[V:5] C,8 | 
[V:1] (3:2:5f2e3dd4^c2 | 
[V:2] (3:2:4a4g2f2e4 | 
[V:3] A8 | 
[V:4] z8 | 
[V:5] z8 | 
[V:1] [M:2/1]d2d2d2d2 | 
[V:2] [M:2/1]d2d2d2d2 | 
[V:3] B8 | 
[V:4] z2G2G2G2 | 
[V:5] z2G,,2G,,2G,,2 | 
[V:1] (3:2:4c4c2B2B4 | 
[V:2] e2c2d2d2 | 
[V:3] G8 | 
[V:4] [M:2/1](3:2:4E4E2G2G4 | 
[V:5] (3:2:4C,4C,2G,,2G,,4 | 
[V:1] A2A2A2A2 | 
[V:2] (3:2:4f4f2f2f4 | 
[V:3] F8 | 
[V:4] (3:2:4D4d2d2d4 | 
[V:5] (3:2:4D,4D,2D,2D,4 | 
[V:1] (3:2:4B4B2F2G4 | 
[V:2] (3:2:4f4d2d2d4 | 
[V:3] B8 | 
[V:4] (3:2:4d4D2D2G4 | 
[V:5] (3:2:4B,,4B,,2B,,2G,,4 | 
[V:1] A8 | 
[V:2] f4z2c2 | 
[V:3] A8 | 
[V:4] [M:2/1]F2DEFGA2 | 
[V:5] D,3C,D,E,F,2 | 
[V:1] z2c2d2c2 | 
[V:2] d2c2f3e | 
[V:3] F8- | 
[V:4] D2A2B2A2 | 
[V:5] z2F,2B,,2F,2 | 
[V:1] f3ec2d2 | 
[V:2] d2c2f4 | 
[V:3] F8 | 
[V:4] B2A3GAB | 
[V:5] B,,2F,3E,D,2 | 
[V:1] e2c4BA | 
[V:2] !fermata!e8- | 
[V:3] !fermata!G8- | 
[V:4] !fermata!c8- | 
[V:5] !fermata!C,8- | 
[V:1] !fermata!G8 | 
[V:2] e8 | 
[V:3] G8 | 
[V:4] c8 | 
[V:5] C,8 | 
[V:1] A8 | 
[V:2] f8 | 
[V:3] F8 | 
[V:4] c8 | 
[V:5] F,,8 | 
[V:1] A8 |]  
[V:2] f8 |]  
[V:3] F8 |]  
[V:4] c8 |]  
[V:5] F,,8 |]  



